packages/axiom-materials/src/icon_svgs/lexis-nexis.svg

<?xml version="1.0" encoding="UTF-8"?>
<svg width="16px" height="16px" viewBox="0 0 16 16" version="1.1" xmlns="http://www.w3.org/2000/svg" xmlns:xlink="http://www.w3.org/1999/xlink">
    <g id="LexisNexis" stroke="none" stroke-width="1" fill="none" fill-rule="evenodd">
        <g id="lexisnexis" fill="#A6153E" fill-rule="nonzero">
            <path d="M9.1784061,2.26295458 C3.45342525,5.00492873 3.48146881,13.6773678 6.83578326,16 L6.69141756,15.895222 C6.10455959,15.7991084 5.53896194,15.6386551 5.00211836,15.4212777 C2.25977689,12.5946789 2.83677868,4.15954216 9.1784061,2.26295458 Z M7.98428081,-1.13686838e-13 C12.4160256,-0.00053283602 16,3.5827894 16,7.98401492 C16,11.9247673 13.1664031,15.1955912 9.42208537,15.8718012 C5.43492477,14.4791518 3.71230251,5.24800985 9.93239418,2.23205009 L9.93239418,2.23205009 L10.1524628,2.38923671 C10.9698605,2.98654589 12.5103407,4.6212868 12.5732174,4.58931664 C12.6669997,4.52697482 11.2213674,3.01798322 10.6240384,2.45211136 C11.4099977,2.79792194 12.949945,3.67816704 13.0128218,3.61475956 C13.0442602,3.55241774 11.4728744,2.60929799 10.6554767,2.20061276 C11.5037799,2.32636206 13.0442602,2.64073531 13.0442602,2.60929799 C13.0756985,2.51445318 11.6295334,2.16917544 10.7178206,1.98055149 C10.749259,1.98055149 12.5098078,1.85480218 12.5098078,1.79192753 C12.5098078,1.72905288 11.2208346,1.79192753 10.6863823,1.82336486 C10.9064509,1.72905288 11.7867253,1.44611696 11.7867253,1.35180498 C11.7867253,1.25749301 10.2776834,1.79192753 10.0576148,1.82336486 C8.70576481,0.691621154 7.41732441,0.251498601 6.28554301,0.157186626 L6.3662313,0.164925894 C6.88893905,0.0568160759 7.43012973,-1.13686838e-13 7.98428081,-1.13686838e-13 Z M8.98924301,2.07433062 C1.910395,3.49639881 1.04486318,10.9250186 3.00767115,14.2510959 C2.40621407,13.7692585 1.87512503,13.2013939 1.43328313,12.5662205 C0.199922018,8.4799974 2.15837957,2.41904934 8.98924301,2.07433062 Z M0.444009791,5.45960283 C1.87186456,2.70829685 4.90350622,0.870207961 8.8949279,1.7913947 C3.14223865,1.60277075 0.596263363,5.53190356 0.0932494089,9.17810044 C0.205174214,9.9259859 0.419977065,10.6523455 0.729742869,11.3371191 C0.261570679,10.3167827 6.39488462e-14,9.1813195 6.39488462e-14,7.98401492 C6.39488462e-14,7.17081178 0.122364754,6.38551961 0.349640337,5.64559175 Z M4.73427566,0.73992551 C6.02390628,0.516447164 7.45111361,0.650906213 8.98924301,1.50845877 C6.34895261,0.691088318 4.11682819,1.13121087 2.48256569,2.20007993 L2.49783932,2.18989633 C3.10420032,1.61545046 3.8002848,1.13481905 4.56253383,0.771560246 Z" id="Combined-Shape"></path>
        </g>
    </g>
</svg>

<svg height="16" viewBox="0 0 16 16" width="16" xmlns="http://www.w3.org/2000/svg"><path d="m9.1784061 2.26295458c-5.72498085 2.74197415-5.69693729 11.41441322-2.34262284 13.73704542l-.1443657-.104778c-.58685797-.0961136-1.15245562-.2565669-1.6892992-.4739443-2.74234147-2.8265988-2.16533968-11.26173554 4.17628774-13.15832312zm-1.19412529-2.26295458c4.43174479-.00053284 8.01571919 3.5827894 8.01571919 7.98401492 0 3.94075238-2.8335969 7.21157628-6.57791463 7.88778628-3.9871606-1.3926494-5.70978286-10.62379135.51030881-13.63975111l.22006862.15718662c.8173977.59730918 2.3578779 2.23205009 2.4207546 2.20007993.0937823-.06234182-1.35185-1.57133342-1.949179-2.13720528.7859593.34581058 2.3259066 1.22605568 2.3887834 1.1626482.0314384-.06234182-1.5399474-1.00546157-2.3573451-1.4141468.8483032.1257493 2.3887835.44012255 2.3887835.40868523.0314383-.09484481-1.4147268-.44012255-2.3264396-.6287465.0314384 0 1.7919872-.12574931 1.7919872-.18862396s-1.2889732 0-1.8234255.03143733c.2200686-.09431198 1.100343-.3772479 1.100343-.47155988 0-.09431197-1.5090419.44012255-1.7291105.47155988-1.35184999-1.13174371-2.64029039-1.57186626-3.77207179-1.66617823l.08068829.00773926c.52270775-.10810981 1.06389843-.16492589 1.61804951-.16492589zm1.0049622 2.07433062c-7.07884801 1.42206819-7.94437983 8.85068798-5.98157186 12.17676528-.60145708-.4818374-1.13254612-1.049702-1.57438802-1.6848754-1.23336111-4.0862231.72509644-10.14717116 7.55595988-10.49188988zm-8.54523322 3.38527221c1.42785477-2.75130598 4.45949643-4.58939487 8.45091811-3.66820813-5.75268925-.18862395-8.29866454 3.74050886-8.80167849 7.38670574.1119248.74788546.32672766 1.47424506.63649346 2.15901866-.46817219-1.0203364-.72974287-2.1557996-.72974287-3.35310418 0-.81320314.12236475-1.59849531.34964034-2.33842317zm4.29026587-4.71967732c1.28963062-.22347835 2.71683795-.0890193 4.25496735.76853326-2.6402904-.81737045-4.87241482-.3772479-6.50667732.69162116l.01527363-.0101836c.606361-.57444587 1.30244548-1.05507728 2.06469451-1.41833608z" fill="#a6153e"/></svg>
